X: 1
T: Jackie and Mamie's Jig
R: jig
C: David Greenberg
D: Buddy MacMaster, Glencoe Hall, BM-91
L: 1/8
M: 6/8
K: F
d |\
"F"cAF "(C7)"cFA | "F"cAF FAc | "Bb"d2b bag | "C7"afd cfd |\
"F"cAF "(C7)"cFA | "F"cAF FED | "C7"CEG cde |1 "F"f3 f2 :|2 "F"f2c "F7"ABc |]
|:\
"Bb"dbf dbf | "F"cag f2A | "Gm"BAB "C7"dcB | "F"AFF "F7"FAc |\
"Bb"dbf dbf | "F"cag fga | "C7"bge ceg |1 "F"f2c "F7"ABc :|2 "F"f3 f2 |]
